X:39
T:Peregrine Falcon
R:hornpipe
C:Paul S. Cranford
O:Cape Breton Island
S:http://www.cranfordpub.com
D:currently unrecorded
B:currently unpublished in book form
Z:psc, (re-formatted,updated 9/17/04)
N:
H:                                                        copyrights Cranford Publications, SOCAN
L:1/8
Q:288
M:C
K:D
AG|(3(FED) FA dfed|cAEF GBAG|FDFA dfed|(3cde dB ABAG|
[1FDFA dfed|cAEF GBAG|(3FED A,F GBAG|(3FGF D2 D2:|
[2FDFA dfed|cAce gbag|fdAF EBAG|(3FGF D2 D2||
||fg|:afdf gecb|ad (3Bcd ecA=c|(3(Bcd) GB AFdB|1cAec gefg|
afdf gecb|ad (3Bcd ecAG|(3FED A,F GBAG|(3FGF D2 Defg:|
[2cAed cAGE|(3FED A,F GEBG|AFdB cbag|fdAF EBAG|(3FGF D2 D2|]
